X:2373
T:Byker Hill and Walk Ashore
S:Linday Marshall
M:4/4
I:speed 250
K:G
B B | B3A B d2 d| d4 z2 AB | A3G A d3 d | d6 c c |
c3B c2 d2 | e4 d3 B | B2A G2 F2 | E8 ||
